X:249
T:Middle Ground
C:by Rod Bond © 2001
N:TablEdited by Rod B.
L:1/8
Q:1/4=168
M:4/4
K:G
|: "Em"ef ed e2 B/d3/2 | e2 B/d3/2 ed BA | ef ed e2 B/d3/2 | "B7"ed BA B4 | "Em"ef ed e2 B/d3/2 | 
e2 B/d3/2 ed BA | "Am"ce Bc "Am"A2 FG | "B7"AG FD "Em"E4 :|: "Em"ef ge "Am"a2 ef | 
"Em"gf eg {fg}"Am"f2 ed | "Em"ef ge "Am"a2 ef | {fg}"Em"f2 eg "B7"B4 | "Em"ba ge "Am"f2 ef | 
"Em"gf eg {fg}"Am"f2 e2 | "Em"ba ge "Am"f2 ef | "B7"ge {fg}f2 "Em"e2 z2 :| 
 

